**kern	**kern	**dynam
*part1	*part1	*part1
*staff2	*staff1	*
*I"Piano	*	*
*clefF4	*clefG2	*
*k[b-]	*k[b-]	*
*M3/4	*M3/4	*
=1	=1	=1
4A	4a	p
=	=	=
(4.d	(4.dd	.
8A	8a	.
4B-	4b-	.
=	=	=
4A	4a	.
4D	4d	.
4E)	4e)	.
=	=	=
*^	*^	*
(2.F	4.F	[2.f	(4.f	.
.	8C	.	8c	.
.	4D	.	4d	.
*v	*v	*	*	*
=	=	=	=
4C	2c 2f]	4c)	.
4FF	.	4F	.
4GG)	4e	4G 4B-	.
*	*v	*v	*
=	=	=
*^	*	*
2.F 2.A	2.AA	2.d	>
=	=	=	=
2E 2A	2AA	2c#X	.
4r	4ryy	4r	.
*v	*v	*	*
=	=	=
4.d	4.dd	]
8A	8a	.
4B-	4b-	.
=	=	=
4A	4a	.
4D	4d	.
4E	4e	.
=	=	=
*-	*-	*-
!!!system-decoration: {(s1,s2)}
